X: 1666
T: Annika's Butterfly
R: barndance
M: 4/4
K: Dminor
D3F AFDF AF D2|G3B dBGB dB G2|A3^c x8 & A2 A^c e2 c2 A2 A2|
[M:4/] Adfe dcBA GFED ^C2 [EA,]2|[M:3/2] D3F AFDF AF D2|G3B dBGB dB G2|
A3^c x8 & A2 A^c e2 g2 fefg|x4 f2 ed x8& a2 gf gfed ^c2 A2|[M:2/2] d4 [Dd]4:|
|:[M:3/2] f3g fcAB cBAB|cBAB c2 A2 F4|G3B d2 g2 baga|
baga b2 g2 e2 c2|B3d g3a ba g2|c3f agfg ag f2|
d2 ba g3f efga|gfef g2 e2 c4|B3d g3a ba g2|
c3f agfg ag f2|d2 ba g3f efga|gfef g4 f4:|

